antibot/app/images/dist/service-vk-icon.svg

<svg width="46" height="46" viewBox="0 0 46 46" fill="none" xmlns="http://www.w3.org/2000/svg">
<g clip-path="url(#clip0_9526_13127)">
<path d="M1.66797 21.3928C1.66797 11.3093 1.66797 6.25768 4.80176 3.13378C7.92567 0 12.9773 0 23.0608 0H25.2752C35.3587 0 40.4004 0 43.5342 3.13378C46.668 6.26758 46.668 11.3093 46.668 21.3928V23.6072C46.668 33.6908 46.668 38.7324 43.5342 41.8661C40.4004 45 35.3587 45 25.2752 45H23.0608C12.9773 45 7.93556 45 4.80176 41.8661C1.66797 38.7324 1.66797 33.6908 1.66797 23.6072V21.3928Z" fill="#0077FF"/>
<path d="M26.0828 37.0931C34.1904 37.0931 40.7631 30.5205 40.7631 22.4128C40.7631 14.305 34.1904 7.73242 26.0828 7.73242C17.975 7.73242 11.4023 14.305 11.4023 22.4128C11.4023 30.5205 17.975 37.0931 26.0828 37.0931Z" fill="#00D9ED"/>
<path fill-rule="evenodd" clip-rule="evenodd" d="M39.7508 5.94492V8.76235H42.5286C44.1104 8.76235 44.921 10.6604 43.8236 11.7973L40.0177 15.7714C39.6815 16.1272 39.207 16.325 38.7227 16.325H35.1242L31.3974 20.3385C31.6641 20.9811 31.8224 21.693 31.8224 22.4344C31.8224 25.41 29.4102 27.822 26.4345 27.822C23.4591 27.822 21.0469 25.41 21.0469 22.4344C21.0469 19.4588 23.4591 17.0466 26.4345 17.0466C26.9388 17.0466 27.4332 17.1158 27.8977 17.2443L32.1783 12.6376V9.68174C32.1783 9.18745 32.3859 8.71293 32.7418 8.37682L36.7159 4.63012C37.8625 3.55257 39.7409 4.36319 39.7409 5.93504L39.7508 5.94492Z" fill="white"/>
</g>
<defs>
<clipPath id="clip0_9526_13127">
<rect width="46" height="46" fill="white"/>
</clipPath>
</defs>
</svg>

<svg width="46" height="46" fill="none" xmlns="http://www.w3.org/2000/svg"><g clip-path="url(#a)"><path d="M1.668 21.393c0-10.084 0-15.135 3.134-18.26C7.926 0 12.977 0 23.06 0h2.214C35.36 0 40.4 0 43.535 3.134c3.133 3.134 3.133 8.175 3.133 18.259v2.214c0 10.084 0 15.125-3.134 18.26C40.4 45 35.36 45 25.275 45h-2.214C12.977 45 7.936 45 4.8 41.866c-3.133-3.134-3.133-8.175-3.133-18.259v-2.214Z" fill="#07F"/><path d="M26.083 37.093c8.107 0 14.68-6.573 14.68-14.68 0-8.108-6.573-14.68-14.68-14.68-8.108 0-14.68 6.572-14.68 14.68 0 8.107 6.572 14.68 14.68 14.68Z" fill="#00D9ED"/><path fill-rule="evenodd" clip-rule="evenodd" d="M39.75 5.945v2.817h2.779c1.581 0 2.392 1.898 1.295 3.035l-3.806 3.974a1.79 1.79 0 0 1-1.295.554h-3.599l-3.727 4.014a5.388 5.388 0 1 1-4.963-3.292c.505 0 1 .069 1.464.197l4.28-4.606V9.682c0-.495.208-.97.564-1.305l3.974-3.747c1.146-1.077 3.025-.267 3.025 1.305l.01.01Z" fill="#fff"/></g><defs><clipPath id="a"><path fill="#fff" d="M0 0h46v46H0z"/></clipPath></defs></svg>
